source/img/svg/icon-mail-white.svg

<svg width="40" height="40" viewBox="0 0 40 40" fill="none" xmlns="http://www.w3.org/2000/svg">
<path fill-rule="evenodd" clip-rule="evenodd" d="M30.2394 12.9765H9.28702C8.56379 12.9765 7.97749 13.5628 7.97749 14.286V27.3813C7.97749 28.1045 8.56379 28.6908 9.28702 28.6908H30.2394C30.9626 28.6908 31.5489 28.1045 31.5489 27.3813V14.286C31.5489 13.5628 30.9626 12.9765 30.2394 12.9765ZM9.28702 11.667C7.84056 11.667 6.66797 12.8396 6.66797 14.286V27.3813C6.66797 28.8277 7.84056 30.0003 9.28702 30.0003H30.2394C31.6859 30.0003 32.8584 28.8277 32.8584 27.3813V14.286C32.8584 12.8396 31.6859 11.667 30.2394 11.667H9.28702Z" fill="white"/>
<path fill-rule="evenodd" clip-rule="evenodd" d="M17.7168 21.4458L7.89453 13.588L8.71258 12.5654L18.5348 20.4232C19.2522 20.9971 20.2716 20.9971 20.989 20.4232L30.8112 12.5654L31.6292 13.588L21.807 21.4458C20.6114 22.4023 18.9124 22.4023 17.7168 21.4458Z" fill="white"/>
</svg>

<svg width="40" height="40" fill="none" xmlns="http://www.w3.org/2000/svg"><path fill-rule="evenodd" clip-rule="evenodd" d="M30.24 12.976H9.286a1.31 1.31 0 00-1.31 1.31v13.095c0 .724.587 1.31 1.31 1.31h20.952a1.31 1.31 0 001.31-1.31V14.286a1.31 1.31 0 00-1.31-1.31zM9.286 11.668a2.619 2.619 0 00-2.619 2.619v13.095a2.619 2.619 0 002.619 2.62h20.952a2.619 2.619 0 002.62-2.62V14.286a2.619 2.619 0 00-2.62-2.619H9.287z" fill="#fff"/><path fill-rule="evenodd" clip-rule="evenodd" d="M17.717 21.446l-9.822-7.858.818-1.023 9.822 7.858a1.964 1.964 0 002.454 0l9.822-7.858.818 1.023-9.822 7.858a3.274 3.274 0 01-4.09 0z" fill="#fff"/></svg>
